apps/common/mobile/resources/icons/common/icon-table-add-row-above-rtl.svg

<svg width="24" height="24" viewBox="0 0 24 24" xmlns="http://www.w3.org/2000/svg">
<path d="M11.2363 3.39844C12.1338 3.85151 12.75 4.78065 12.75 5.85449C12.7493 7.37152 11.5198 8.60303 10.001 8.60352C9.41763 8.60364 8.92386 8.60342 8.5 8.60352V13.543H4.25C4.16208 13.543 4.07839 13.5601 4 13.5879V10.793C4 10.3788 3.66421 10.043 3.25 10.043C2.83579 10.043 2.5 10.3788 2.5 10.793V18.293C2.50004 19.2594 3.28353 20.043 4.25 20.043H20.25C21.2164 20.043 21.9999 19.2594 22 18.293V5.14844C21.9997 4.18216 21.2163 3.39844 20.25 3.39844H11.2363ZM20.5 18.293C20.4999 18.431 20.388 18.543 20.25 18.543H16V15.043H20.5V18.293ZM14.5 18.543H10V15.043H14.5V18.543ZM4 14.9971C4.07848 15.0249 4.16196 15.043 4.25 15.043H8.5V18.543H4.25C4.11196 18.543 4.00004 18.431 4 18.293V14.9971ZM20.5 13.543H16V10.043H20.5V13.543ZM14.5 13.543H10V10.043H14.5V13.543Z" fill="#444444"/>
<path d="M6 1.10352C5.58579 1.10352 5.25 1.4393 5.25 1.85352V5.10449L2 5.10352C1.58581 5.10352 1.25004 5.43934 1.25 5.85352C1.25013 6.26761 1.58587 6.60352 2 6.60352L5.25 6.60449V9.85352C5.25009 10.2677 5.58584 10.6035 6 10.6035C6.41412 10.6035 6.74991 10.2676 6.75 9.85352V6.60449L10 6.60352C10.4141 6.60352 10.7499 6.26761 10.75 5.85352C10.75 5.43934 10.4142 5.10352 10 5.10352L6.75 5.10449V1.85352C6.75 1.43933 6.41418 1.10356 6 1.10352Z" fill="#446ECA"/>
</svg>

<svg xmlns="http://www.w3.org/2000/svg" width="24" height="24" fill="none" viewBox="0 0 24 24">
  <g class="icon-table-add-row-above-rtl">
    <path fill="#446ECA" d="M2 6.604a.75.75 0 0 1 0-1.5h3.25v-3.25a.75.75 0 1 1 1.5 0v3.25H10a.75.75 0 1 1 0 1.5H6.75v3.25a.75.75 0 0 1-1.5 0v-3.25H2Z" class="icon-fill-blue-primary"/>
    <path fill="#444" fill-rule="evenodd" d="M11.236 3.398a2.75 2.75 0 0 1-1.235 5.206H8.5v4.939H4.25a.746.746 0 0 0-.25.045v-2.795a.75.75 0 0 0-1.5 0v7.5c0 .966.784 1.75 1.75 1.75h16a1.75 1.75 0 0 0 1.75-1.75V5.148a1.75 1.75 0 0 0-1.75-1.75h-9.014ZM20.5 18.293a.25.25 0 0 1-.25.25H16v-3.5h4.5v3.25Zm-6 .25H10v-3.5h4.5v3.5ZM4 14.997a.746.746 0 0 0 .25.046H8.5v3.5H4.25a.25.25 0 0 1-.25-.25v-3.296Zm16.5-1.454H16v-3.5h4.5v3.5Zm-6 0H10v-3.5h4.5v3.5Z" class="icon-fill-gray-primary" clip-rule="evenodd"/>
  </g>
</svg>
